X: 420
T: A Trip To Miltown
R: jig
M: 6/8
K: Gdorian
DGF GAc|dge f2d|cAG F2G|ABG AFC|
DGF GAc|dge f2d|cAG FGA|1 cAF G3:|2 BGG GAc||
dgf g2a|bga gfd|c2f f2g|afa gfc|
dgf g2a|bga gfd|Bcd fcd|1 BGG G2c:|2 BGG G2F||

